img/ic2.svg

<svg width="38" height="42" viewBox="0 0 38 42" fill="none" xmlns="http://www.w3.org/2000/svg">
<path d="M23.2222 14.7V4.2H4.22222V37.8H17.0071C17.6996 38.6757 18.5356 39.4485 19.4982 40.0785L22.4327 42H2.09633C1.54072 42 1.00783 41.7806 0.614748 41.39C0.22167 40.9994 0.000559533 40.4695 0 39.9168V2.0832C0 0.9555 0.947889 0 2.11533 0H25.327L38 12.6V14.7H23.2222ZM19 18.9H38V31.3929C38 33.4719 36.9423 35.4165 35.1796 36.5694L28.5 40.9458L21.8204 36.5694C20.9562 36.0068 20.246 35.2395 19.7537 34.3363C19.2614 33.4331 19.0024 32.4224 19 31.395V18.9ZM23.2222 31.3929C23.2222 32.0565 23.5642 32.6823 24.1427 33.0624L28.5 35.9184L32.8573 33.0624C33.1379 32.8819 33.369 32.6348 33.5297 32.3434C33.6904 32.0519 33.7756 31.7253 33.7778 31.3929V23.1H23.2222V31.3929Z" fill="url(#paint0_linear)"/>
<defs>
<linearGradient id="paint0_linear" x1="-0.0754064" y1="-0.181806" x2="33.689" y2="36.2222" gradientUnits="userSpaceOnUse">
<stop stop-color="#FECA52"/>
<stop offset="0.515625" stop-color="#FFCE5F"/>
<stop offset="1" stop-color="#FF644E"/>
</linearGradient>
</defs>
</svg>

<svg width="38" height="42" viewBox="0 0 38 42" fill="none" xmlns="http://www.w3.org/2000/svg"><path d="M23.222 14.7V4.2h-19v33.6h12.785a10.516 10.516 0 0 0 2.491 2.279L22.433 42H2.096c-.555 0-1.088-.22-1.481-.61A2.08 2.08 0 0 1 0 39.917V2.083C0 .955.948 0 2.115 0h23.212L38 12.6v2.1H23.222zM19 18.9h19v12.493a6.191 6.191 0 0 1-2.82 5.176l-6.68 4.377-6.68-4.377a6.214 6.214 0 0 1-2.066-2.233A6.175 6.175 0 0 1 19 31.395V18.9zm4.222 12.493c0 .663.342 1.29.92 1.67l4.358 2.855 4.357-2.856a2.008 2.008 0 0 0 .92-1.67V23.1H23.223v8.293z" fill="url(#a)"/><defs><linearGradient id="a" x1="-.075" y1="-.182" x2="33.689" y2="36.222" gradientUnits="userSpaceOnUse"><stop stop-color="#FECA52"/><stop offset=".516" stop-color="#FFCE5F"/><stop offset="1" stop-color="#FF644E"/></linearGradient></defs></svg>
